img/svg/main-service-3.svg

<svg width="50" height="135" viewBox="0 0 50 135" fill="none" xmlns="http://www.w3.org/2000/svg">
<rect x="20" y="18" width="10" height="110" fill="white"/>
<path d="M10 54C10 51.2386 12.2386 49 15 49H35C37.7614 49 40 51.2386 40 54V54C40 56.7614 37.7614 59 35 59H15C12.2386 59 10 56.7614 10 54V54Z" fill="#4096FC"/>
<path d="M10 74C10 71.2386 12.2386 69 15 69H35C37.7614 69 40 71.2386 40 74V74C40 76.7614 37.7614 79 35 79H15C12.2386 79 10 76.7614 10 74V74Z" fill="#4096FC"/>
<path d="M10 94C10 91.2386 12.2386 89 15 89H35C37.7614 89 40 91.2386 40 94V94C40 96.7614 37.7614 99 35 99H15C12.2386 99 10 96.7614 10 94V94Z" fill="#4096FC"/>
<path d="M10 64C10 61.2386 12.2386 59 15 59H35C37.7614 59 40 61.2386 40 64V64C40 66.7614 37.7614 69 35 69H15C12.2386 69 10 66.7614 10 64V64Z" fill="#4096FC"/>
<path d="M10 84C10 81.2386 12.2386 79 15 79H35C37.7614 79 40 81.2386 40 84V84C40 86.7614 37.7614 89 35 89H15C12.2386 89 10 86.7614 10 84V84Z" fill="#4096FC"/>
<path d="M10 104C10 101.239 12.2386 99 15 99H35C37.7614 99 40 101.239 40 104V104C40 106.761 37.7614 109 35 109H15C12.2386 109 10 106.761 10 104V104Z" fill="#4096FC"/>
<circle cx="25" cy="10" r="7.5" fill="#4096FC" stroke="white" stroke-width="5"/>
<path d="M16 121.667C16 121.298 16.2985 121 16.6667 121H33.3333C33.7015 121 34 121.298 34 121.667V126C34 130.971 29.9706 135 25 135V135C20.0294 135 16 130.971 16 126V121.667Z" fill="#4096FC"/>
<path d="M4 114C4 111.239 6.23858 109 9 109H41C43.7614 109 46 111.239 46 114V119C46 121.761 43.7614 124 41 124H9C6.23858 124 4 121.761 4 119V114Z" fill="#F9F9F9"/>
<path d="M0 109C0 106.239 2.23858 104 5 104H45C47.7614 104 50 106.239 50 109V109C50 111.761 47.7614 114 45 114H5C2.23858 114 0 111.761 0 109V109Z" fill="#F9F9F9"/>
</svg>

<svg width="50" height="135" viewBox="0 0 50 135" fill="none" xmlns="http://www.w3.org/2000/svg"><path fill="#fff" d="M20 18h10v110H20z"/><path d="M10 54a5 5 0 015-5h20a5 5 0 010 10H15a5 5 0 01-5-5zm0 20a5 5 0 015-5h20a5 5 0 010 10H15a5 5 0 01-5-5zm0 20a5 5 0 015-5h20a5 5 0 010 10H15a5 5 0 01-5-5zm0-30a5 5 0 015-5h20a5 5 0 010 10H15a5 5 0 01-5-5zm0 20a5 5 0 015-5h20a5 5 0 010 10H15a5 5 0 01-5-5zm0 20a5 5 0 015-5h20a5 5 0 010 10H15a5 5 0 01-5-5z" fill="#4096FC"/><circle cx="25" cy="10" r="7.5" fill="#4096FC" stroke="#fff" stroke-width="5"/><path d="M16 121.667c0-.369.299-.667.667-.667h16.666c.369 0 .667.298.667.667V126a9 9 0 01-9 9 9 9 0 01-9-9v-4.333z" fill="#4096FC"/><path d="M4 114a5 5 0 015-5h32a5 5 0 015 5v5a5 5 0 01-5 5H9a5 5 0 01-5-5v-5z" fill="#F9F9F9"/><path d="M0 109a5 5 0 015-5h40a5 5 0 010 10H5a5 5 0 01-5-5z" fill="#F9F9F9"/></svg>
